X:1
T:Violin Caprice No. 16 in G Minor
T:Violin Caprice No. 16 in G Minor
T:Op. 1, No. 16
T:Niccolò Paganini
C:Niccolò Paganini
L:1/8
Q:1/4=140
M:3/4
K:Bb
V:1 treble nm="Violin" snm="Vln."
V:1
"^Presto"!f! G/B/d/g/ a/b/!f!!>!^f/a/ g/d/B/G/ |!f! !>!^F/A/!f!!>!E/A/!f! !>!D/d'/c'/a/ ^f/d/c/A/ | %2
!f! !>!^F/A/c/e/ ^f/!f!!>!c'/a/f/ e/c/B/A/ |!f! !>!B/d/!f!!>!A/d/!f! !>!G/=B/d/g/ =b/f'/d'/b/ | %4
!f! !>!c'/g/e/c/!f! !>!C/A/c/f/ a/e'/c'/a/ |!f! !>!b/f/d/B/!f! !>!B,/b/a/g/!f! !>!^F/c'/a/^f/ | %6
!f! !>!b/g/!f!!>!G/b/!f! !>!F/b/!f!!>!E/b/!f! !>!D/b/!f!!>!^C/b/ | %7
!f! !>!D/a/^f/d'/ a/^f'/d'/a/ f/d/c/A/ :|!f! !>!=B,/G/=B/d/!f! !>!f/_a/g/f/!f! !>!d/B/a/g/ | %9
 f/e/d/c/ C/e/D/f/ C/e/B,/d/ | A,/F/A/c/ e/!f!!>!_g/f/e/ c/!f!!>!A/g/f/ | %11
 e/d/c/B/ B,/d/D/f/ F/b/D/f/ | a/!f!!>!g/E/G/ g/!f!!>!f/D/F/ f/!f!!>!e/C/D/ | %13
 e/!f!!>!d/B,/D/ F/B/d/f/ b/d'/f'/b'/ | a/b/_d'/b/ g/f/=e/d'/ b/g/f/e/ | %15
 g/f/!f!!>!=e/_g/ f/e/!f!!>!=g/f/ e/f/_e/c/ | d/B/!f!!>!A/_c/ B/A/!f!!>!=c/B/ A/B/_G/=E/ | %17
 =G/F/!f!!>!=e'/_g'/ f'/e'/!f!!>!=g'/f'/ e'/f'/_e'/c'/ | %18
 d'/b/!f!!>!a/_c'/ b/a/!f!!>!=c'/b/ a/b/_g/=e/ | =g/f/!f!!>!=e/_g/ f/_e/c/A/ F/=E/_E/C/ | %20
!f! !>!B,/D/F/B/ ^c/d/!f!!>!A/=c/ B/F/D/B,/ |!f! !>!A,/c'/a/c'/ f/c'/e/c'/ c/c'/A/c'/ | %22
!f! !>!C/E/A/c/ d/e/!f!!>!=B/d/ c/A/E/C/ |!f! !>!D/d'/b/d'/ f/d'/d/d'/ B/d'/F/d'/ | %24
!f! !>!G/e'/d'/e'/!f! !>!F/d'/^c'/d'/!f! !>!=E/c'/=c'/^c'/ | %25
!f! !>!F/d'/^c'/d'/!f! !>!_E/=c'/=b/c'/!f! !>!D/_b/a/b/ | %26
"_dim." ((E/G/)(G/B/) (B/e/)(e/g/) (g/b/)(b/e'/)) | ((E/_A/)(A/c/) (c/e/)(e/_a/) (a/c'/)(c'/e'/)) | %28
 ((E/=A/)(A/c/) (c/e/)(e/a/) (a/c'/)(c'/e'/)) |!p! (d'/f'/a/c'/ b/d'/^f/a/ g/b/d/=f/ | %30
 e/g/=B/d/ c/b/a/_a/ g/_g/f/=e/) | (!>!=g/f/d/B/ G/=E/_G/F/ E/F/_E/C/) | %32
 B,/!<(!(b/a/_a/ g/_g/f/=e/ =g/_g/f/e/ | =g/_g/f/=e/!<)!!f! !>!_e/d/c/B/!f! !>!A/_A/G/^F/) | %34
!f! !>!G/b/D/g/ C/e/B,/d/ A,/c/G,/B/ | D/A/^F/d/ A/^f/d/a/ f/d'/a/^f'/ | %36
 A/c'/E/a/ D/^f/C/e/ B,/d/A,/c/ | G,/B/G/d/ B/g/d/b/ g/d'/b/g'/ | %38
 f'/(d'/=b/).g/ (b/g/).f/(d/ =B/).G/(F/D/) | .C/(E/D/).F/ (E/G/).^F/(A/ G/).B/(A/c/) | %40
 .B/(d/c/).e/ (d/^f/).=e/(g/ f/).a/(g/b/) | .a/(c'/b/).d'/ (g/b/).a/(c'/ =f/).a/(g/b/) | %42
 .e/(g/f/).a/ (d/f/).e/(g/ c/).e/(d/f/) | .B/(d/c/).e/ (A/B/).=B/(c/ ^c/).d/(e/=c/) | %44
 B/d'/A/c'/ G/b/D/g/ ^f/C/B,/A,/ | G,/!f!(!>!b/a/_a/ g/_g/f/=e/ _e/d/).D/.^f/ | %46
 .G,/!f!(!>!B/A/_A/!f! !>!G/_G/F/=E/ _E/D/).d'/.^f'/ | %47
 .G,/!f!(!>!B/A/_A/!f! !>!G/_G/F/=E/ _E/D/).d'/.^f'/ | %48
 .G,!f!(!>!g'/d'/) .G,!f!(!>!d'/b/) .G,!f!(!>!b/g/) | %49
 .G,!f!(!>!g/d/) .G,!f!(!>!d/B/) .G,!f!(!>!B/G/) |!ff! G,2 (G,/A,/B,/=B,/ C/^C/D/_B,/) | %51
{/[G,DB]} g4 !fermata!z2 |] %52

